illustrations/assets/Code error/il_axis_code_error_dark.svg

<svg xmlns="http://www.w3.org/2000/svg" width="231" height="160" fill="none" viewBox="0 0 231 160">
  <path fill="#242424" d="M113.432 147.8c38.957 0 70.538-30.624 70.538-68.4 0-37.7763-31.581-68.4-70.538-68.4-38.957 0-70.538 30.6237-70.538 68.4 0 37.776 31.581 68.4 70.538 68.4Z"/>
  <g filter="url(#filter0_d_3871_353928)">
    <path fill="#5C5C5C" d="M178.142 38.5836v81.0594c0 2.933-2.491 5.348-5.515 5.348H54.9706c-3.0243 0-5.5149-2.415-5.5149-5.348V38.5836c0-2.9326 2.4906-5.3478 5.5149-5.3478H172.627c3.024 0 5.515 2.4152 5.515 5.3478Z"/>
  </g>
  <path fill="#4D4D4D" d="M56.2054 76.6639h116.006v22.9824H56.2054z"/>
  <path fill="#3A3A3A" d="M178.142 38.5836v3.8815H49.4557v-3.8815c0-2.9326 2.4906-5.3478 5.5149-5.3478H172.627c3.024 0 5.515 2.4152 5.515 5.3478Z"/>
  <path fill="#D1D1D1" d="M55.2372 39.5324c.9334 0 1.6901-.7337 1.6901-1.6388s-.7567-1.6388-1.6901-1.6388c-.9334 0-1.6901.7337-1.6901 1.6388s.7567 1.6388 1.6901 1.6388Z"/>
  <path fill="#5C5C5C" d="M60.4852 39.5324c.9334 0 1.6901-.7337 1.6901-1.6388s-.7567-1.6388-1.6901-1.6388c-.9334 0-1.69.7337-1.69 1.6388s.7566 1.6388 1.69 1.6388Z" opacity=".6"/>
  <path fill="#5C5C5C" d="M65.8225 39.5324c.9334 0 1.6901-.7337 1.6901-1.6388s-.7567-1.6388-1.6901-1.6388c-.9334 0-1.6901.7337-1.6901 1.6388s.7567 1.6388 1.6901 1.6388Z" opacity=".4"/>
  <path fill="#707070" d="M82.3463 53.3169H63.63c-1.1697 0-2.1445-1.1783-2.1445-2.1209 0-1.1783.9748-2.1209 2.1445-2.1209h18.7163c1.1698 0 2.1446 1.1783 2.1446 2.1209 0 1.1783-.9748 2.1209-2.1446 2.1209Z"/>
  <path fill="#D1D1D1" d="M77.2847 85.1988H63.5793c-1.1421 0-2.0938-1.1783-2.0938-2.121 0-1.1783.9517-2.1209 2.0938-2.1209h13.7054c1.1421 0 2.0939 1.1783 2.0939 2.1209-.1904.9427-1.1421 2.121-2.0939 2.121ZM165.364 85.1988h-26.271c-1.201 0-2.202-1.1783-2.202-2.121 0-1.1783 1.001-2.1209 2.202-2.1209h26.271c1.201 0 2.201 1.1783 2.201 2.1209-.2.9427-1.2 2.121-2.201 2.121Z"/>
  <path fill="url(#paint0_linear_3871_353928)" d="m172.121 85.5301-22.724 36.2229c-2.744 4.373.4 10.056 5.562 10.056h45.45c5.162 0 8.305-5.683 5.562-10.056l-22.725-36.2229c-2.574-4.1023-8.551-4.1023-11.125 0Z"/>
  <path fill="#3A3A3A" d="M177.825 97.2129c-1.594 0-2.861 1.3394-2.771 2.9311l.689 12.323c.062 1.105.976 1.969 2.082 1.969 1.106 0 2.02-.864 2.082-1.969l.69-12.323c.089-1.5917-1.178-2.9311-2.772-2.9311Zm-.009 25.4411c1.49 0 2.653-1.204 2.653-2.714s-1.163-2.696-2.653-2.696c-1.472 0-2.635 1.186-2.635 2.696 0 1.51 1.163 2.714 2.635 2.714Z"/>
  <path fill="#D1D1D1" d="M128.278 85.1988H87.9931c-1.2131 0-2.2239-1.1783-2.2239-2.121 0-1.1783 1.0108-2.1209 2.2239-2.1209h40.2849c1.213 0 2.224 1.1783 2.224 2.1209-.202.9427-1.213 2.121-2.224 2.121ZM96.3038 94.743H71.3991c-1.2248 0-2.2455-1.1783-2.2455-2.121 0-1.1783 1.0207-2.1209 2.2455-2.1209h24.9047c1.2249 0 2.2456 1.1783 2.2456 2.1209-.2042 1.1783-1.2249 2.121-2.2456 2.121ZM119.392 94.743h-13.566c-1.18 0-2.164-1.1783-2.164-2.121 0-1.1783.984-2.1209 2.164-2.1209h13.566c1.18 0 2.163 1.1783 2.163 2.1209-.196 1.1783-1.18 2.121-2.163 2.121Z"/>
  <path fill="#707070" d="M92.473 107.536H63.728c-1.2232 0-2.2425-1.178-2.2425-2.121 0-1.178 1.0193-2.12 2.2425-2.12h28.745c1.2232 0 2.2425 1.178 2.2425 2.12 0 1.179-.8155 2.121-2.2425 2.121ZM113.007 107.536h-11.02c-1.178 0-2.1589-1.178-2.1589-2.121 0-1.178.9809-2.12 2.1589-2.12h11.02c1.177 0 2.158 1.178 2.158 2.12 0 1.179-.785 2.121-2.158 2.121ZM75.8716 117.081H63.7143c-1.2157 0-2.2288-1.179-2.2288-2.121 0-1.179 1.0131-2.121 2.2288-2.121h12.1573c1.2158 0 2.2289 1.178 2.2289 2.121 0 1.178-.8105 2.121-2.2289 2.121ZM86.3161 117.081h-2.3736c-1.0955 0-2.0084-1.179-2.0084-2.121 0-1.179.9129-2.121 2.0084-2.121h2.3736c1.0955 0 2.0084 1.178 2.0084 2.121 0 1.178-.9129 2.121-2.0084 2.121ZM68.5024 73.4657h-5.0873c-1.0525 0-1.9296-1.1783-1.9296-2.1209 0-1.1783.8771-2.1209 1.9296-2.1209h5.0873c1.0525 0 1.9296 1.1783 1.9296 2.1209 0 1.1783-.8771 2.1209-1.9296 2.1209ZM112.957 73.4657H81.5878c-1.2045 0-2.2083-1.1783-2.2083-2.1209 0-1.1783 1.0038-2.1209 2.2083-2.1209h31.3692c1.205 0 2.209 1.1783 2.209 2.1209 0 1.1783-1.004 2.1209-2.209 2.1209ZM92.473 62.861H63.728c-1.2232 0-2.2425-1.1783-2.2425-2.1209 0-1.1783 1.0193-2.121 2.2425-2.121h28.745c1.2232 0 2.2425 1.1783 2.2425 2.121 0 1.1783-.8155 2.1209-2.2425 2.1209ZM130.816 62.861h-28.745c-1.224 0-2.2429-1.1783-2.2429-2.1209 0-1.1783 1.0189-2.121 2.2429-2.121h28.745c1.223 0 2.242 1.1783 2.242 2.121 0 1.1783-.815 2.1209-2.242 2.1209ZM151.349 62.861h-11.02c-1.177 0-2.158-1.1783-2.158-2.1209 0-1.1783.981-2.121 2.158-2.121h11.02c1.178 0 2.159 1.1783 2.159 2.121 0 1.1783-.785 2.1209-2.159 2.1209Z"/>
  <defs>
    <linearGradient id="paint0_linear_3871_353928" x1="182.43" x2="198.846" y1="124.818" y2="102.93" gradientUnits="userSpaceOnUse">
      <stop stop-color="#FAFAFA"/>
      <stop offset="1" stop-color="#F5F2EC"/>
    </linearGradient>
    <filter id="filter0_d_3871_353928" width="168.286" height="131.355" x="29.6557" y="23.3358" color-interpolation-filters="sRGB" filterUnits="userSpaceOnUse">
      <feFlood flood-opacity="0" result="BackgroundImageFix"/>
      <feColorMatrix in="SourceAlpha" result="hardAlpha" values="0 0 0 0 0 0 0 0 0 0 0 0 0 0 0 0 0 0 127 0"/>
      <feOffset dy="9.9"/>
      <feGaussianBlur stdDeviation="9.9"/>
      <feColorMatrix values="0 0 0 0 0 0 0 0 0 0 0 0 0 0 0 0 0 0 0.27 0"/>
      <feBlend in2="BackgroundImageFix" result="effect1_dropShadow_3871_353928"/>
      <feBlend in="SourceGraphic" in2="effect1_dropShadow_3871_353928" result="shape"/>
    </filter>
  </defs>
</svg>

<svg width="231" height="160" viewBox="0 0 231 160" fill="none" xmlns="http://www.w3.org/2000/svg">
<path d="M113.432 147.8C152.389 147.8 183.97 117.176 183.97 79.4C183.97 41.6237 152.389 11 113.432 11C74.475 11 42.894 41.6237 42.894 79.4C42.894 117.176 74.475 147.8 113.432 147.8Z" fill="#242424"/>
<g filter="url(#filter0_d_3871_353928)">
<path d="M178.142 38.5836V119.643C178.142 122.576 175.651 124.991 172.627 124.991H54.9706C51.9463 124.991 49.4557 122.576 49.4557 119.643V38.5836C49.4557 35.651 51.9463 33.2358 54.9706 33.2358H172.627C175.651 33.2358 178.142 35.651 178.142 38.5836Z" fill="#5C5C5C"/>
</g>
<rect x="56.2054" y="76.6641" width="116.006" height="22.9824" fill="#4D4D4D"/>
<path d="M178.142 38.5836V42.4651H49.4557V38.5836C49.4557 35.651 51.9463 33.2358 54.9706 33.2358H172.627C175.651 33.2358 178.142 35.651 178.142 38.5836Z" fill="#3A3A3A"/>
<path d="M55.2372 39.5326C56.1706 39.5326 56.9273 38.7988 56.9273 37.8937C56.9273 36.9886 56.1706 36.2549 55.2372 36.2549C54.3038 36.2549 53.5471 36.9886 53.5471 37.8937C53.5471 38.7988 54.3038 39.5326 55.2372 39.5326Z" fill="#D1D1D1"/>
<path opacity="0.6" d="M60.4852 39.5326C61.4186 39.5326 62.1753 38.7988 62.1753 37.8937C62.1753 36.9886 61.4186 36.2549 60.4852 36.2549C59.5518 36.2549 58.7952 36.9886 58.7952 37.8937C58.7952 38.7988 59.5518 39.5326 60.4852 39.5326Z" fill="#5C5C5C"/>
<path opacity="0.4" d="M65.8225 39.5326C66.7559 39.5326 67.5126 38.7988 67.5126 37.8937C67.5126 36.9886 66.7559 36.2549 65.8225 36.2549C64.8891 36.2549 64.1324 36.9886 64.1324 37.8937C64.1324 38.7988 64.8891 39.5326 65.8225 39.5326Z" fill="#5C5C5C"/>
<path d="M82.3463 53.3168H63.63C62.4603 53.3168 61.4855 52.1385 61.4855 51.1959C61.4855 50.0176 62.4603 49.075 63.63 49.075H82.3463C83.5161 49.075 84.4909 50.2532 84.4909 51.1959C84.4909 52.3742 83.5161 53.3168 82.3463 53.3168Z" fill="#707070"/>
<path d="M77.2847 85.1986H63.5793C62.4372 85.1986 61.4855 84.0203 61.4855 83.0777C61.4855 81.8994 62.4372 80.9568 63.5793 80.9568H77.2847C78.4268 80.9568 79.3786 82.1351 79.3786 83.0777C79.1882 84.0203 78.2365 85.1986 77.2847 85.1986Z" fill="#D1D1D1"/>
<path d="M165.364 85.1986H139.093C137.892 85.1986 136.891 84.0203 136.891 83.0777C136.891 81.8994 137.892 80.9568 139.093 80.9568H165.364C166.565 80.9568 167.565 82.1351 167.565 83.0777C167.365 84.0203 166.365 85.1986 165.364 85.1986Z" fill="#D1D1D1"/>
<path d="M172.121 85.5301L149.397 121.753C146.653 126.126 149.797 131.809 154.959 131.809H200.409C205.571 131.809 208.714 126.126 205.971 121.753L183.246 85.5301C180.672 81.4278 174.695 81.4278 172.121 85.5301Z" fill="url(#paint0_linear_3871_353928)"/>
<path d="M177.825 97.2129C176.231 97.2129 174.964 98.5523 175.054 100.144L175.743 112.467C175.805 113.572 176.719 114.436 177.825 114.436C178.931 114.436 179.845 113.572 179.907 112.467L180.597 100.144C180.686 98.5523 179.419 97.2129 177.825 97.2129ZM177.816 122.654C179.306 122.654 180.469 121.45 180.469 119.94C180.469 118.43 179.306 117.244 177.816 117.244C176.344 117.244 175.181 118.43 175.181 119.94C175.181 121.45 176.344 122.654 177.816 122.654Z" fill="#3A3A3A"/>
<path d="M128.278 85.1986H87.9931C86.78 85.1986 85.7692 84.0203 85.7692 83.0777C85.7692 81.8994 86.78 80.9568 87.9931 80.9568H128.278C129.491 80.9568 130.502 82.1351 130.502 83.0777C130.3 84.0203 129.289 85.1986 128.278 85.1986Z" fill="#D1D1D1"/>
<path d="M96.3038 94.7428H71.3991C70.1743 94.7428 69.1536 93.5645 69.1536 92.6219C69.1536 91.4436 70.1743 90.501 71.3991 90.501H96.3038C97.5287 90.501 98.5494 91.6793 98.5494 92.6219C98.3452 93.8002 97.3245 94.7428 96.3038 94.7428Z" fill="#D1D1D1"/>
<path d="M119.392 94.7428H105.826C104.646 94.7428 103.662 93.5645 103.662 92.6219C103.662 91.4436 104.646 90.501 105.826 90.501H119.392C120.572 90.501 121.555 91.6793 121.555 92.6219C121.359 93.8002 120.375 94.7428 119.392 94.7428Z" fill="#D1D1D1"/>
<path d="M92.473 107.536H63.728C62.5048 107.536 61.4855 106.358 61.4855 105.415C61.4855 104.237 62.5048 103.294 63.728 103.294H92.473C93.6962 103.294 94.7155 104.473 94.7155 105.415C94.7155 106.594 93.9 107.536 92.473 107.536Z" fill="#707070"/>
<path d="M113.007 107.536H101.987C100.809 107.536 99.8281 106.358 99.8281 105.415C99.8281 104.237 100.809 103.294 101.987 103.294H113.007C114.184 103.294 115.165 104.473 115.165 105.415C115.165 106.594 114.38 107.536 113.007 107.536Z" fill="#707070"/>
<path d="M75.8716 117.08H63.7143C62.4986 117.08 61.4855 115.902 61.4855 114.96C61.4855 113.781 62.4986 112.839 63.7143 112.839H75.8716C77.0874 112.839 78.1005 114.017 78.1005 114.96C78.1005 116.138 77.29 117.08 75.8716 117.08Z" fill="#707070"/>
<path d="M86.3161 117.08H83.9425C82.847 117.08 81.9341 115.902 81.9341 114.96C81.9341 113.781 82.847 112.839 83.9425 112.839H86.3161C87.4116 112.839 88.3245 114.017 88.3245 114.96C88.3245 116.138 87.4116 117.08 86.3161 117.08Z" fill="#707070"/>
<path d="M68.5024 73.4655H63.4151C62.3626 73.4655 61.4855 72.2872 61.4855 71.3446C61.4855 70.1663 62.3626 69.2236 63.4151 69.2236H68.5024C69.5549 69.2236 70.432 70.4019 70.432 71.3446C70.432 72.5229 69.5549 73.4655 68.5024 73.4655Z" fill="#707070"/>
<path d="M112.957 73.4655H81.5878C80.3833 73.4655 79.3795 72.2872 79.3795 71.3446C79.3795 70.1663 80.3833 69.2236 81.5878 69.2236H112.957C114.162 69.2236 115.166 70.4019 115.166 71.3446C115.166 72.5229 114.162 73.4655 112.957 73.4655Z" fill="#707070"/>
<path d="M92.473 62.861H63.728C62.5048 62.861 61.4855 61.6827 61.4855 60.7401C61.4855 59.5618 62.5048 58.6191 63.728 58.6191H92.473C93.6962 58.6191 94.7155 59.7974 94.7155 60.7401C94.7155 61.9184 93.9 62.861 92.473 62.861Z" fill="#707070"/>
<path d="M130.816 62.861H102.071C100.847 62.861 99.8281 61.6827 99.8281 60.7401C99.8281 59.5618 100.847 58.6191 102.071 58.6191H130.816C132.039 58.6191 133.058 59.7974 133.058 60.7401C133.058 61.9184 132.243 62.861 130.816 62.861Z" fill="#707070"/>
<path d="M151.349 62.861H140.329C139.152 62.861 138.171 61.6827 138.171 60.7401C138.171 59.5618 139.152 58.6191 140.329 58.6191H151.349C152.527 58.6191 153.508 59.7974 153.508 60.7401C153.508 61.9184 152.723 62.861 151.349 62.861Z" fill="#707070"/>
<defs>
<filter id="filter0_d_3871_353928" x="29.6557" y="23.3358" width="168.286" height="131.355" filterUnits="userSpaceOnUse" color-interpolation-filters="sRGB">
<feFlood flood-opacity="0" result="BackgroundImageFix"/>
<feColorMatrix in="SourceAlpha" type="matrix" values="0 0 0 0 0 0 0 0 0 0 0 0 0 0 0 0 0 0 127 0" result="hardAlpha"/>
<feOffset dy="9.9"/>
<feGaussianBlur stdDeviation="9.9"/>
<feColorMatrix type="matrix" values="0 0 0 0 0 0 0 0 0 0 0 0 0 0 0 0 0 0 0.27 0"/>
<feBlend mode="normal" in2="BackgroundImageFix" result="effect1_dropShadow_3871_353928"/>
<feBlend mode="normal" in="SourceGraphic" in2="effect1_dropShadow_3871_353928" result="shape"/>
</filter>
<linearGradient id="paint0_linear_3871_353928" x1="182.43" y1="124.818" x2="198.846" y2="102.93" gradientUnits="userSpaceOnUse">
<stop stop-color="#FAFAFA"/>
<stop offset="1" stop-color="#F5F2EC"/>
</linearGradient>
</defs>
</svg>
